X:294
T:The Sheep In The Boat
R:jig
M:6/8
L:1/8
K:Edor
|: BEF GFE | FEF def | edB BAF | AFE FED |
BEF G2 A | FEF def | edB {d}BAF | AFE E2 A :|
|: B2 e ede | fef d2 f | edB BAF | AFE FGA |
Bee ede | fef def | edB BAF | AFE E2 A |
Bee ede | ~f3 def | edB BAF | AFE FED |
B,EF GFE | ~F3 def | edB {d}BAF | AFE EFA |

